material/.icons/material/tray-alert.svg

<svg xmlns="http://www.w3.org/2000/svg" viewBox="0 0 24 24"><path d="M2 12h2v5h16v-5h2v5a2 2 0 01-2 2H4a2 2 0 01-2-2m11-5h-2v2h2m0-10h-2v6h2z"/></svg>

<?xml version="1.0" encoding="UTF-8"?><!DOCTYPE svg PUBLIC "-//W3C//DTD SVG 1.1//EN" "http://www.w3.org/Graphics/SVG/1.1/DTD/svg11.dtd"><svg xmlns="http://www.w3.org/2000/svg" xmlns:xlink="http://www.w3.org/1999/xlink" version="1.1" id="mdi-tray-alert" width="24" height="24" viewBox="0 0 24 24"><path d="M2 12H4V17H20V12H22V17A2 2 0 0 1 20 19H4A2 2 0 0 1 2 17M13 12H11V14H13M13 4H11V10H13Z" /></svg>
